exported-svg/terminal.svg

<svg height="24" viewBox="0 0 24 24" width="24" xmlns="http://www.w3.org/2000/svg"><path d="m9.79289322 11.5-5.64644661-5.64644661c-.19526215-.19526215-.19526215-.51184463 0-.70710678s.51184463-.19526215.70710678 0l6.00000001 5.99999999c.1952621.1952622.1952621.5118446 0 .7071068l-6.00000001 6c-.19526215.1952621-.51184463.1952621-.70710678 0-.19526215-.1952622-.19526215-.5118446 0-.7071068zm2.70710678 8.5c-.2761424 0-.5-.2238576-.5-.5s.2238576-.5.5-.5h8c.2761424 0 .5.2238576.5.5s-.2238576.5-.5.5z"/></svg>

<?xml version="1.0" encoding="UTF-8"?>
<svg width="24px" height="24px" viewBox="0 0 24 24" version="1.1" xmlns="http://www.w3.org/2000/svg" xmlns:xlink="http://www.w3.org/1999/xlink">
    <!-- Generator: Sketch 55.2 (78181) - https://sketchapp.com -->
    <title>terminal</title>
    <desc>Created with Sketch.</desc>
    <g id="terminal" stroke="none" stroke-width="1" fill="none" fill-rule="evenodd">
        <path d="M9.79289322,11.5 L4.14644661,5.85355339 C3.95118446,5.65829124 3.95118446,5.34170876 4.14644661,5.14644661 C4.34170876,4.95118446 4.65829124,4.95118446 4.85355339,5.14644661 L10.8535534,11.1464466 C11.0488155,11.3417088 11.0488155,11.6582912 10.8535534,11.8535534 L4.85355339,17.8535534 C4.65829124,18.0488155 4.34170876,18.0488155 4.14644661,17.8535534 C3.95118446,17.6582912 3.95118446,17.3417088 4.14644661,17.1464466 L9.79289322,11.5 Z M12.5,20 C12.2238576,20 12,19.7761424 12,19.5 C12,19.2238576 12.2238576,19 12.5,19 L20.5,19 C20.7761424,19 21,19.2238576 21,19.5 C21,19.7761424 20.7761424,20 20.5,20 L12.5,20 Z" id="Combined-Shape" fill="#000000" fill-rule="nonzero"></path>
    </g>
</svg>
